symbols/web/sports_soccer/materialsymbolsoutlined/sports_soccer_wght200grad200_48px.svg

<svg xmlns="http://www.w3.org/2000/svg" height="48" width="48"><path d="M24 42.8q-3.9 0-7.325-1.5-3.425-1.5-5.95-4.025Q8.2 34.75 6.7 31.325 5.2 27.9 5.2 24q0-3.9 1.5-7.325 1.5-3.425 4.025-5.95Q13.25 8.2 16.675 6.7 20.1 5.2 24 5.2q3.9 0 7.325 1.5 3.425 1.5 5.95 4.025 2.525 2.525 4.025 5.95Q42.8 20.1 42.8 24q0 3.9-1.5 7.325-1.5 3.425-4.025 5.95-2.525 2.525-5.95 4.025Q27.9 42.8 24 42.8Zm9.75-22.9 3.6-1.2.95-3.45q-1.65-2.65-4.175-4.525Q31.6 8.85 28.45 7.9l-3.35 2.35v3.6Zm-19.45 0 8.6-6.05v-3.6L19.55 7.9q-3.1.95-5.625 2.825Q11.4 12.6 9.75 15.25l1.05 3.45Zm-2.75 15.25 3.2-.3 2-3.4-3.05-9.35-3.75-1.25-2.55 2q0 3.6.85 6.5t3.3 5.8ZM24 40.6q1.3 0 2.7-.225 1.4-.225 2.95-.675l1.7-3.75-1.8-3h-11.1l-1.75 3 1.8 3.75q1.4.45 2.8.675 1.4.225 2.7.225Zm-5.2-9.85h10.35l3.05-9.2L24 15.7l-8.25 5.85Zm17.7 4.4q2.4-2.9 3.25-5.8.85-2.9.85-6.5L38.05 21l-3.75 1-3.05 9.45 2 3.4Z"/></svg>

<svg xmlns="http://www.w3.org/2000/svg" height="48" width="48"><path d="M24 42.8Q20.1 42.8 16.675 41.3Q13.25 39.8 10.725 37.275Q8.2 34.75 6.7 31.325Q5.2 27.9 5.2 24Q5.2 20.1 6.7 16.675Q8.2 13.25 10.725 10.725Q13.25 8.2 16.675 6.7Q20.1 5.2 24 5.2Q27.9 5.2 31.325 6.7Q34.75 8.2 37.275 10.725Q39.8 13.25 41.3 16.675Q42.8 20.1 42.8 24Q42.8 27.9 41.3 31.325Q39.8 34.75 37.275 37.275Q34.75 39.8 31.325 41.3Q27.9 42.8 24 42.8ZM33.75 19.9 37.35 18.7 38.3 15.25Q36.65 12.6 34.125 10.725Q31.6 8.85 28.45 7.9L25.1 10.25V13.85ZM14.3 19.9 22.9 13.85V10.25L19.55 7.9Q16.45 8.85 13.925 10.725Q11.4 12.6 9.75 15.25L10.8 18.7ZM11.55 35.15 14.75 34.85 16.75 31.45 13.7 22.1 9.95 20.85 7.4 22.85Q7.4 26.45 8.25 29.35Q9.1 32.25 11.55 35.15ZM24 40.6Q25.3 40.6 26.7 40.375Q28.1 40.15 29.65 39.7L31.35 35.95L29.55 32.95H18.45L16.7 35.95L18.5 39.7Q19.9 40.15 21.3 40.375Q22.7 40.6 24 40.6ZM18.8 30.75H29.15L32.2 21.55L24 15.7L15.75 21.55ZM36.5 35.15Q38.9 32.25 39.75 29.35Q40.6 26.45 40.6 22.85L38.05 21L34.3 22L31.25 31.45L33.25 34.85Z"/></svg>
